Papirus/48x48/apps/godot.svg

<svg xmlns="http://www.w3.org/2000/svg" width="48" height="48" version="1">
 <path style="opacity:.2" d="m20 6-0.164062 0.0957031-4.835938 1.9042969 1 5-4.603516 2.105469-2.396484-2.105469-5 5 3 3.095703v10.365235l-3-0.798829v3.333985c4.0266668 6.151666 11 9.003906 20 9.003906s15.973333-2.85224 20-9.003906v-3.333985l-3 0.798829v-10.365235l3-3.095703-5-5-2.396484 2.105469-4.603516-2.105469 1-5-5-2-1.710938 3h-4.582031z"/>
 <path style="fill:#3888c3" d="m20 5l-0.164062 0.0957031-4.835938 1.9042969 1 5-4.603516 2.105469-2.396484-2.105469-5 5 3 3.095703v8.832031 0.632813 0.900391l-3-0.798829v3.333985c4.0266668 6.151666 11 9.003906 20 9.003906s15.973333-2.85224 20-9.003906v-3.333985l-3 0.798829v-0.900391-0.632813-8.832031l3-3.095703-5-5-2.396484 2.105469-4.603516-2.105469 1-5-5-2-1.710938 3h-2.291015-2.291016l-1.707031-3z"/>
 <path style="opacity:.2;fill:#ffffff" d="m20 5l-0.164062 0.0957031-4.835938 1.9042969 0.185547 0.9277344 4.650391-1.8320313 0.164062-0.0957031 1.707031 3h2.291016 2.291015l1.710938-3 4.814453 1.9257812 0.185547-0.9257812-5-2-1.710938 3h-2.291015-2.291016l-1.707031-3zm-11 7l-5 5 0.4921875 0.507812 4.5078125-4.507812 2.396484 2.105469 4.603516-2.105469-0.183594-0.916016-4.419922 2.021485-2.396484-2.105469zm30 0l-2.396484 2.105469-4.419922-2.021485-0.183594 0.916016 4.603516 2.105469 2.396484-2.105469 4.507812 4.507812 0.492188-0.507812-5-5zm-35 17.662109v1l3 0.798829v-0.900391-0.099609l-3-0.798829zm40 0l-3 0.798829v0.099609 0.900391l3-0.798829v-1z"/>
 <g style="opacity:.2" transform="translate(0 .999891)">
  <path d="m14 20c2.2096 0 4 1.7904 4 4s-1.7904 4-4 4-4-1.7904-4-4 1.7904-4 4-4z"/>
  <path d="m16 24a2 2 0 1 1 -4 0 2 2 0 1 1 4 0z"/>
 </g>
 <path style="fill:#ffffff" d="m14 20c2.2096 0 4 1.7904 4 4s-1.7904 4-4 4-4-1.7904-4-4 1.7904-4 4-4z"/>
 <path style="fill:#353535" d="m16 24a2 2 0 1 1 -4 0 2 2 0 1 1 4 0z"/>
 <path style="opacity:.2" d="m24 23c1.108 0 2 0.669 2 1.499999v3.000001c0 0.830999-0.892 1.5-2 1.5s-2-0.669001-2-1.5v-3.000001c0-0.830999 0.892-1.499999 2-1.499999z"/>
 <path style="fill:#ffffff" d="m24 22.000109c1.108 0 2 0.669 2 1.499999v3.000001c0 0.830999-0.892 1.5-2 1.5s-2-0.669001-2-1.5v-3.000001c0-0.830999 0.892-1.499999 2-1.499999z"/>
 <g style="opacity:.2" transform="translate(20 .999891)">
  <path d="m14 20c2.2096 0 4 1.7904 4 4s-1.7904 4-4 4-4-1.7904-4-4 1.7904-4 4-4z"/>
  <path d="m16 24a2 2 0 1 1 -4 0 2 2 0 1 1 4 0z"/>
 </g>
 <g transform="translate(20)">
  <path style="fill:#ffffff" d="m14 20c2.2096 0 4 1.7904 4 4s-1.7904 4-4 4-4-1.7904-4-4 1.7904-4 4-4z"/>
  <path style="fill:#353535" d="m16 24a2 2 0 1 1 -4 0 2 2 0 1 1 4 0z"/>
 </g>
 <path style="opacity:.2;stroke:#000000;stroke-width:2;fill:none" d="m43.620438 29.690413-2.620438 0.729927v2.720637l-4 1.32714v-2.786994l-4 0.729927v2.720637l-5 0.868613v-3h-4m-19.620438-3.309887 2.620438 0.729927v2.720637l4 1.32714v-2.786994l4 0.729927v2.720637l5 0.868613v-3h4"/>
 <path style="stroke:#ffffff;stroke-width:2;fill:none" d="m43.620438 28.690113-2.620438 0.729927v2.720637l-4 1.32714v-2.786994l-4 0.729927v2.720637l-5 0.868613v-3h-4m-19.620438-3.309887 2.620438 0.729927v2.720637l4 1.32714v-2.786994l4 0.729927v2.720637l5 0.868613v-3h4"/>
</svg>

<svg xmlns="http://www.w3.org/2000/svg" width="48" height="48" version="1">
 <path d="M 20,6 19.835938,6.0957031 15,8 16,13 11.396484,15.105469 9,13 l -5,5 3,3.095703 0,8.832031 0,0.632813 0,0.900391 0,-0.798829 0,3.333985 C 7,33.996094 8,43 24,43 40,43 41,33.996094 41,33.996094 l 0,-3.333985 0,0.798829 0,-0.900391 0,-0.632813 0,-8.832031 L 44,18 39,13 36.603516,15.105469 32,13 33,8 28,6 26.289062,9 23.998047,9 21.707031,9 Z" style="opacity:0.2"/>
 <path style="fill:#3888c3" d="M 20,5 19.835938,5.0957031 15,7 16,12 11.396484,14.105469 9,12 l -5,5 3,3.095703 0,8.832031 0,0.632813 0,0.900391 0,-0.798829 0,3.333985 C 7,32.996094 8,42 24,42 40,42 41,32.996094 41,32.996094 l 0,-3.333985 0,0.798829 0,-0.900391 0,-0.632813 0,-8.832031 L 44,17 39,12 36.603516,14.105469 32,12 33,7 28,5 26.289062,8 23.998047,8 21.707031,8 Z"/>
 <g style="opacity:.2" transform="translate(0 .999891)">
  <path d="m14 20c2.2096 0 4 1.7904 4 4s-1.7904 4-4 4-4-1.7904-4-4 1.7904-4 4-4z"/>
  <path d="m16 24a2 2 0 1 1 -4 0 2 2 0 1 1 4 0z"/>
 </g>
 <path style="fill:#ffffff" d="m14 20c2.2096 0 4 1.7904 4 4s-1.7904 4-4 4-4-1.7904-4-4 1.7904-4 4-4z"/>
 <path style="fill:#353535" d="m16 24a2 2 0 1 1 -4 0 2 2 0 1 1 4 0z"/>
 <path style="opacity:.2" d="m24 23c1.108 0 2 0.669 2 1.499999v3.000001c0 0.830999-0.892 1.5-2 1.5s-2-0.669001-2-1.5v-3.000001c0-0.830999 0.892-1.499999 2-1.499999z"/>
 <path style="fill:#ffffff" d="m24 22.000109c1.108 0 2 0.669 2 1.499999v3.000001c0 0.830999-0.892 1.5-2 1.5s-2-0.669001-2-1.5v-3.000001c0-0.830999 0.892-1.499999 2-1.499999z"/>
 <g style="opacity:.2" transform="translate(20 .999891)">
  <path d="m14 20c2.2096 0 4 1.7904 4 4s-1.7904 4-4 4-4-1.7904-4-4 1.7904-4 4-4z"/>
  <path d="m16 24a2 2 0 1 1 -4 0 2 2 0 1 1 4 0z"/>
 </g>
 <g transform="translate(20)">
  <path style="fill:#ffffff" d="m14 20c2.2096 0 4 1.7904 4 4s-1.7904 4-4 4-4-1.7904-4-4 1.7904-4 4-4z"/>
  <path style="fill:#353535" d="m16 24a2 2 0 1 1 -4 0 2 2 0 1 1 4 0z"/>
 </g>
 <path d="m 41,33 -6,0 0,3 -7,0 0,-3 -4,0 m -17,0 6,0 0,3 7,0 0,-3 4,0" style="opacity:0.2;fill:none;stroke:#000000;stroke-width:2;stroke-linejoin:round"/>
 <path style="fill:none;stroke:#ffffff;stroke-width:2;stroke-linejoin:round" d="m 41,32 -6,0 0,3 -7,0 0,-3 -4,0 m -17,0 6,0 0,3 7,0 0,-3 4,0"/>
 <path style="fill:#ffffff;opacity:0.2" d="M 20 5 L 19.835938 5.0957031 L 15 7 L 15.185547 7.9277344 L 19.835938 6.0957031 L 20 6 L 21.707031 9 L 23.998047 9 L 26.289062 9 L 28 6 L 32.814453 7.9257812 L 33 7 L 28 5 L 26.289062 8 L 23.998047 8 L 21.707031 8 L 20 5 z M 9 12 L 4 17 L 4.4921875 17.507812 L 9 13 L 11.396484 15.105469 L 16 13 L 15.816406 12.083984 L 11.396484 14.105469 L 9 12 z M 39 12 L 36.603516 14.105469 L 32.183594 12.083984 L 32 13 L 36.603516 15.105469 L 39 13 L 43.507812 17.507812 L 44 17 L 39 12 z"/>
</svg>
